arkscan/icons/bitvenus.svg

<svg width="200" height="200" viewBox="0 0 200 200" fill="none" xmlns="http://www.w3.org/2000/svg">
<path d="M105.966 0.156982H63.8933V40.3454H103.454C130.455 40.3454 130.455 81.1617 105.966 81.1617H63.8933V121.978H116.013C143.014 121.978 145.526 161.538 116.013 161.538H63.8933V199.843H121.664C150.55 199.843 176.923 171.586 176.923 136.421C176.923 109.294 161.853 92.4647 154.317 88.0691C157.457 83.4641 163.736 73.8775 163.736 49.7645C163.736 19.6232 131.711 0.156982 105.966 0.156982Z" fill="#FF7800"/>
<path d="M23.0769 121.978H63.8932V161.539H23.0769V121.978Z" fill="#FF7800"/>
<path d="M63.8932 40.3455V81.1618H23.0769V40.3455H63.8932Z" fill="#FF7800"/>
</svg>

<svg width="200" height="200" fill="none" xmlns="http://www.w3.org/2000/svg"><path d="M105.966.157H63.893v40.188h39.561c27.001 0 27.001 40.817 2.512 40.817H63.893v40.816h52.12c27.001 0 29.513 39.56 0 39.56h-52.12v38.305h57.771c28.886 0 55.259-28.257 55.259-63.422 0-27.127-15.07-43.956-22.606-48.352 3.14-4.605 9.419-14.192 9.419-38.305 0-30.14-32.025-49.607-57.77-49.607ZM23.077 121.978h40.816v39.561H23.077v-39.561ZM63.893 40.346v40.816H23.077V40.345h40.816Z" fill="#FF7800"/></svg>
